sophos/package.svg

<svg width="204" height="37" viewBox="0 0 204 37" fill="none" xmlns="http://www.w3.org/2000/svg">
<path d="M3.585 28.822H18.653C21.279 28.822 22.717 28.574 23.56 28.029C24.601 27.383 25.196 26.296 25.196 25.007C25.196 23.47 24.402 22.131 23.065 21.486C22.372 21.09 21.081 20.891 19.495 20.891H13.398C9.434 20.891 6.856 20.197 5.122 18.71C3.139 16.974 2 14.298 2 11.424C2 7.21097 4.329 3.54297 7.749 2.35297C9.236 1.80697 10.97 1.65997 14.837 1.65997H31.193V7.55797H16.422C13.299 7.60697 13.051 7.60697 12.011 7.85497C10.624 8.20097 9.781 9.48997 9.781 11.224C9.781 12.713 10.474 13.902 11.665 14.447C12.656 14.894 13.449 14.992 15.829 14.992H21.132C25.99 14.992 28.616 15.736 30.55 17.719C32.037 19.205 33.029 22.131 33.029 25.007C33.029 28.526 31.393 31.796 28.816 33.383C27.181 34.423 25.1 34.72 20.191 34.72H3.585V28.822Z" fill="#007AFF"/>
<path d="M51.912 1.40997C47.253 1.40997 43.188 2.55097 40.611 4.63297C37.34 7.21097 35.606 12.02 35.606 18.365C35.606 22.775 36.545 26.396 38.48 29.121C41.057 32.84 46.065 34.923 52.409 34.923C56.87 34.923 60.638 33.83 63.117 31.848C66.388 29.223 68.225 24.46 68.225 18.66L68.21 17.714L68.17 16.783L68.104 15.877L68.015 14.988L67.899 14.121L67.755 13.281L67.59 12.468L67.399 11.681L67.295 11.297L67.184 10.922L67.068 10.551L66.947 10.194L66.822 9.83797L66.688 9.49297L66.548 9.15897L66.402 8.82697L66.255 8.51097L66.1 8.19897L65.939 7.89597L65.773 7.60497L65.599 7.31997L65.424 7.04297L65.241 6.77897L65.053 6.52497C62.523 3.24597 57.811 1.40997 51.912 1.40997ZM51.96 7.00897C57.859 7.00897 60.486 10.482 60.486 18.213C60.486 25.847 57.809 29.366 51.96 29.366C46.013 29.366 43.335 25.845 43.335 18.114L43.339 17.788L43.343 17.466L43.348 17.15L43.361 16.838L43.375 16.533L43.389 16.23L43.407 15.935L43.429 15.644L43.455 15.357L43.482 15.08L43.513 14.809L43.548 14.541L43.584 14.277L43.624 14.017L43.669 13.767L43.714 13.517L43.764 13.277L43.818 13.045L43.872 12.813L43.931 12.589L43.993 12.369L44.055 12.154L44.121 11.949L44.193 11.748L44.269 11.552L44.345 11.36L44.426 11.177L44.511 10.994L44.595 10.82L44.684 10.654L44.778 10.492L44.872 10.337C46.211 8.20297 48.739 7.00897 51.96 7.00897Z" fill="#007AFF"/>
<path d="M71.99 1.65997V34.722H79.024V23.168H90.33C94.097 23.168 95.876 22.676 97.81 21.04C100.09 19.108 101.479 15.886 101.479 12.415C101.479 9.49097 100.439 6.76297 98.506 4.68097C96.326 2.25197 94.291 1.65997 88.492 1.65997H71.99ZM79.024 7.55897H88.739C89.879 7.55897 90.772 7.65597 91.317 7.85497C92.855 8.39997 93.748 9.98597 93.748 12.166C93.748 14.001 93.201 15.588 92.31 16.332L92.239 16.394L92.167 16.455L92.091 16.514L92.016 16.573L91.935 16.626L91.855 16.676L91.77 16.725L91.681 16.771L91.591 16.814L91.497 16.859L91.403 16.896L91.305 16.935L91.201 16.971L91.098 17L90.991 17.032L90.879 17.063L90.764 17.088L90.648 17.109L90.527 17.131L90.402 17.153L90.273 17.171L90.143 17.189L90.004 17.203L89.865 17.221L89.722 17.231L89.57 17.24L89.418 17.25L89.262 17.259L89.1 17.262L88.934 17.267H88.764L88.589 17.271H79.022V7.55897H79.024Z" fill="#007AFF"/>
<path d="M131.566 34.718H124.527V21.089H111.789V34.718H104.75V1.65997H111.789V15.191H124.527V1.65997H131.566V34.718Z" fill="#007AFF"/>
<path d="M152.088 1.40997C147.43 1.40997 143.365 2.55097 140.787 4.63297C137.516 7.21097 135.777 12.02 135.777 18.365C135.777 22.775 136.72 26.396 138.656 29.121C141.23 32.84 146.238 34.923 152.584 34.923C157.047 34.923 160.811 33.83 163.287 31.848C166.558 29.223 168.394 24.46 168.394 18.66L168.38 17.714L168.341 16.783L168.275 15.877L168.185 14.988L168.068 14.121L167.925 13.281L167.759 12.468L167.571 11.681L167.464 11.297L167.357 10.922L167.242 10.551L167.117 10.194L166.992 9.83797L166.857 9.49297L166.718 9.15897L166.575 8.82697L166.423 8.51097L166.267 8.19897L166.107 7.89597L165.941 7.60497L165.767 7.31997L165.593 7.04297L165.407 6.77897L165.219 6.52497C162.693 3.24597 157.988 1.40997 152.088 1.40997ZM152.139 7.00897C158.035 7.00897 160.664 10.482 160.664 18.213C160.664 25.847 157.986 29.366 152.139 29.366C146.192 29.366 143.514 25.845 143.514 18.114V17.788L143.518 17.466L143.528 17.15L143.536 16.838L143.55 16.533L143.57 16.23L143.588 15.935L143.609 15.644L143.63 15.357L143.657 15.08L143.692 14.809L143.723 14.541L143.758 14.277L143.799 14.017L143.842 13.767L143.889 13.517L143.938 13.277L143.991 13.045L144.046 12.813L144.105 12.589L144.167 12.369L144.229 12.154L144.299 11.949L144.369 11.748L144.441 11.552L144.517 11.36L144.597 11.177L144.683 10.994L144.767 10.82L144.857 10.654L144.951 10.492L145.051 10.337C146.387 8.20297 148.916 7.00897 152.139 7.00897Z" fill="#007AFF"/>
<path d="M172.559 28.822H187.627C190.252 28.822 191.689 28.574 192.533 28.029C193.572 27.383 194.168 26.296 194.168 25.007C194.168 23.47 193.375 22.131 192.037 21.486C191.342 21.09 190.055 20.891 188.469 20.891H182.371C178.406 20.891 175.828 20.197 174.094 18.71C172.112 16.974 170.971 14.298 170.971 11.424C170.971 7.21097 173.299 3.54297 176.721 2.35297C178.207 1.80697 179.944 1.65997 183.809 1.65997H200.166V7.55797H185.395C182.272 7.60697 182.024 7.60697 180.985 7.85497C179.596 8.20097 178.753 9.48997 178.753 11.224C178.753 12.713 179.448 13.902 180.64 14.447C181.628 14.894 182.421 14.992 184.802 14.992H190.105C194.962 14.992 197.589 15.736 199.525 17.719C201.01 19.205 202 22.13 202 25.006C202 28.525 200.365 31.795 197.787 33.382C196.152 34.422 194.07 34.719 189.162 34.719H172.558V28.822H172.559Z" fill="#007AFF"/>
</svg>

<?xml version="1.0" encoding="UTF-8" standalone="no"?>
<!-- Generator: Adobe Illustrator 15.0.2, SVG Export Plug-In . SVG Version: 6.00 Build 0)  -->

<svg
   xmlns:dc="http://purl.org/dc/elements/1.1/"
   xmlns:cc="http://creativecommons.org/ns#"
   xmlns:rdf="http://www.w3.org/1999/02/22-rdf-syntax-ns#"
   xmlns:svg="http://www.w3.org/2000/svg"
   xmlns="http://www.w3.org/2000/svg"
   xmlns:sodipodi="http://sodipodi.sourceforge.net/DTD/sodipodi-0.dtd"
   xmlns:inkscape="http://www.inkscape.org/namespaces/inkscape"
   version="1.1"
   id="svg13466"
   x="0px"
   y="0px"
   width="204px"
   height="36.333px"
   viewBox="0 0 204 36.333"
   enable-background="new 0 0 204 36.333"
   xml:space="preserve"
   inkscape:version="0.91 r13725"
   sodipodi:docname="Sophos_logo.svg"><metadata
     id="metadata13"><rdf:RDF><cc:Work
         rdf:about=""><dc:format>image/svg+xml</dc:format><dc:type
           rdf:resource="http://purl.org/dc/dcmitype/StillImage" /></cc:Work></rdf:RDF></metadata><defs
     id="defs11" /><sodipodi:namedview
     pagecolor="#ffffff"
     bordercolor="#666666"
     borderopacity="1"
     objecttolerance="10"
     gridtolerance="10"
     guidetolerance="10"
     inkscape:pageopacity="0"
     inkscape:pageshadow="2"
     inkscape:window-width="1680"
     inkscape:window-height="1027"
     id="namedview9"
     showgrid="false"
     inkscape:zoom="6.3783713"
     inkscape:cx="108.68177"
     inkscape:cy="18.1665"
     inkscape:window-x="1912"
     inkscape:window-y="-8"
     inkscape:window-maximized="1"
     inkscape:current-layer="svg13466" /><path
     id="path13161"
     fill="#495390"
     d="M3.585,28.822h15.068c2.626,0,4.064-0.248,4.907-0.793c1.041-0.646,1.636-1.733,1.636-3.022  c0-1.537-0.794-2.876-2.131-3.521c-0.693-0.396-1.984-0.595-3.57-0.595h-6.097c-3.964,0-6.542-0.694-8.276-2.181  C3.139,16.974,2,14.298,2,11.424c0-4.213,2.329-7.881,5.749-9.071C9.236,1.807,10.97,1.66,14.837,1.66h16.356v5.898H16.422  c-3.123,0.049-3.371,0.049-4.411,0.297c-1.387,0.346-2.23,1.635-2.23,3.369c0,1.489,0.693,2.678,1.884,3.223  c0.991,0.447,1.784,0.545,4.164,0.545h5.303c4.858,0,7.484,0.744,9.418,2.727c1.487,1.486,2.479,4.412,2.479,7.288  c0,3.519-1.636,6.789-4.213,8.376c-1.635,1.04-3.716,1.337-8.625,1.337H3.585V28.822L3.585,28.822z"
     style="fill:#007aff;fill-opacity:1" /><path
     id="path13163"
     fill="#495390"
     d="M51.912,1.41c-4.659,0-8.724,1.141-11.301,3.223c-3.271,2.578-5.005,7.387-5.005,13.732  c0,4.41,0.939,8.031,2.874,10.756c2.577,3.719,7.585,5.802,13.929,5.802c4.461,0,8.229-1.093,10.708-3.075  c3.271-2.625,5.108-7.388,5.108-13.188l-0.015-0.946l-0.04-0.931l-0.066-0.906l-0.089-0.889l-0.116-0.867l-0.144-0.84l-0.165-0.813  l-0.191-0.787l-0.104-0.384l-0.111-0.375l-0.116-0.371l-0.121-0.357l-0.125-0.356l-0.134-0.345l-0.14-0.334l-0.146-0.332  l-0.147-0.316l-0.155-0.312l-0.161-0.303l-0.166-0.291l-0.174-0.285l-0.175-0.277l-0.183-0.264l-0.188-0.254  C62.523,3.246,57.811,1.41,51.912,1.41z M51.96,7.009c5.899,0,8.526,3.473,8.526,11.204c0,7.634-2.677,11.153-8.526,11.153  c-5.947,0-8.625-3.521-8.625-11.252l0.004-0.326l0.004-0.322l0.005-0.316l0.013-0.312l0.014-0.305l0.014-0.303l0.018-0.295  l0.022-0.291l0.026-0.287l0.027-0.277l0.031-0.271l0.035-0.268l0.036-0.264l0.04-0.26l0.045-0.25l0.045-0.25l0.05-0.24l0.054-0.232  l0.054-0.232l0.059-0.224l0.062-0.22l0.062-0.215l0.066-0.205l0.072-0.201l0.076-0.196l0.076-0.192l0.081-0.183l0.085-0.183  l0.084-0.174l0.089-0.166l0.094-0.162l0.094-0.155C46.211,8.203,48.739,7.009,51.96,7.009z"
     style="fill:#007aff;fill-opacity:1" /><path
     id="path13167"
     fill="#495390"
     d="M71.99,1.66v33.062h7.034V23.168H90.33c3.767,0,5.546-0.492,7.48-2.128  c2.28-1.932,3.669-5.154,3.669-8.625c0-2.924-1.04-5.652-2.973-7.734C96.326,2.252,94.291,1.66,88.492,1.66H71.99z M79.024,7.559  h9.715c1.14,0,2.033,0.097,2.578,0.296c1.538,0.545,2.431,2.131,2.431,4.311c0,1.835-0.547,3.422-1.438,4.166l-0.071,0.062  l-0.072,0.061l-0.076,0.059l-0.075,0.059l-0.081,0.053l-0.08,0.05l-0.085,0.049l-0.089,0.046l-0.09,0.043l-0.094,0.045l-0.094,0.037  l-0.098,0.039l-0.104,0.036L91.098,17l-0.107,0.032l-0.112,0.031l-0.115,0.025l-0.116,0.021l-0.121,0.022l-0.125,0.022l-0.129,0.018  l-0.13,0.018l-0.139,0.014l-0.139,0.018l-0.143,0.01L89.57,17.24l-0.152,0.01l-0.156,0.009L89.1,17.262l-0.166,0.005h-0.17  l-0.175,0.004h-9.567V7.559H79.024z"
     style="fill:#007aff;fill-opacity:1" /><polygon
     id="polygon13171"
     fill="#495390"
     points="131.566,34.718 124.527,34.718 124.527,21.089 111.789,21.089 111.789,34.718   104.75,34.718 104.75,1.66 111.789,1.66 111.789,15.191 124.527,15.191 124.527,1.66 131.566,1.66 "
     style="fill:#007aff;fill-opacity:1" /><path
     id="path13173"
     fill="#495390"
     d="M152.088,1.41c-4.658,0-8.723,1.141-11.301,3.223c-3.271,2.578-5.01,7.387-5.01,13.732  c0,4.41,0.943,8.031,2.879,10.756c2.574,3.719,7.582,5.802,13.928,5.802c4.463,0,8.227-1.093,10.703-3.075  c3.271-2.625,5.107-7.388,5.107-13.188l-0.014-0.946l-0.039-0.931l-0.066-0.906l-0.09-0.889l-0.117-0.867l-0.143-0.84l-0.166-0.813  l-0.188-0.787l-0.107-0.384l-0.107-0.375l-0.115-0.371l-0.125-0.357l-0.125-0.356l-0.135-0.345l-0.139-0.334l-0.143-0.332  l-0.152-0.316l-0.156-0.312l-0.16-0.303l-0.166-0.291l-0.174-0.285l-0.174-0.277l-0.186-0.264l-0.188-0.254  C162.693,3.246,157.988,1.41,152.088,1.41z M152.139,7.009c5.896,0,8.525,3.473,8.525,11.204c0,7.634-2.678,11.153-8.525,11.153  c-5.947,0-8.625-3.521-8.625-11.252v-0.326l0.004-0.322l0.01-0.316l0.008-0.312l0.014-0.305l0.02-0.303l0.018-0.295l0.021-0.291  l0.021-0.287l0.027-0.277l0.035-0.271l0.031-0.268l0.035-0.264l0.041-0.26l0.043-0.25l0.047-0.25l0.049-0.24l0.053-0.232  l0.055-0.232l0.059-0.224l0.062-0.22l0.062-0.215l0.07-0.205l0.07-0.201l0.072-0.196l0.076-0.192l0.08-0.183l0.086-0.183  l0.084-0.174l0.09-0.166l0.094-0.162l0.1-0.155C146.387,8.203,148.916,7.009,152.139,7.009z"
     style="fill:#007aff;fill-opacity:1" /><path
     id="path13177"
     fill="#495390"
     d="M172.559,28.822h15.068c2.625,0,4.062-0.248,4.906-0.793  c1.039-0.646,1.635-1.733,1.635-3.022c0-1.537-0.793-2.876-2.131-3.521c-0.695-0.396-1.982-0.595-3.568-0.595h-6.098  c-3.965,0-6.543-0.694-8.277-2.181c-1.982-1.736-3.123-4.412-3.123-7.286c0-4.213,2.328-7.881,5.75-9.071  c1.486-0.546,3.223-0.693,7.088-0.693h16.357v5.898h-14.771c-3.123,0.049-3.371,0.049-4.41,0.297  c-1.389,0.346-2.232,1.635-2.232,3.369c0,1.489,0.695,2.678,1.887,3.223c0.988,0.447,1.781,0.545,4.162,0.545h5.303  c4.857,0,7.484,0.744,9.42,2.727C201.01,19.205,202,22.13,202,25.006c0,3.519-1.635,6.789-4.213,8.376  c-1.635,1.04-3.717,1.337-8.625,1.337h-16.604V28.822L172.559,28.822z"
     style="fill:#007aff;fill-opacity:1" /></svg>
